shields/template_usadc_wide.svg

<?xml version="1.0" encoding="UTF-8" standalone="no"?>
<!-- Created with Inkscape (http://www.inkscape.org/) -->
<svg
   xmlns:svg="http://www.w3.org/2000/svg"
   xmlns="http://www.w3.org/2000/svg"
   version="1.0"
   width="600"
   height="750"
   id="svg2">
  <defs
     id="defs4" />
  <g
     id="layer1">
    <rect
       width="599.72235"
       height="749.72235"
       rx="37.5"
       ry="37.5"
       x="0.13903929"
       y="0.13881789"
       style="opacity:1;fill:white;fill-opacity:1;stroke:black;stroke-width:0.27766207;stroke-miterlimit:4;stroke-dasharray:none;stroke-opacity:1"
       id="rect2029" />
    <rect
       width="581.25"
       height="731.25"
       rx="28.125"
       ry="25.137005"
       x="9.3751497"
       y="9.3750238"
       style="opacity:1;fill:black;fill-opacity:1;stroke:none;stroke-width:1;stroke-miterlimit:4;stroke-dasharray:none;stroke-opacity:1"
       id="rect4704" />
    <rect
       width="550"
       height="700"
       rx="12.5"
       ry="12.5"
       x="25.000149"
       y="25.000025"
       style="opacity:1;fill:white;fill-opacity:1;stroke:none;stroke-width:1;stroke-miterlimit:4;stroke-dasharray:none;stroke-opacity:1"
       id="rect5591" />
    <path
       d="M 235.69322,24.483724 L 27.508899,248.40372 L 61.068912,285.53932 C 69.376698,295.99692 95.036131,322.21472 96.963206,322.21472 C 97.68415,322.21472 100.69469,323.87652 103.6533,325.90762 C 110.18102,330.38892 119.68248,334.30582 128.33539,336.08252 C 143.92592,339.28382 162.06929,344.44932 165.7816,346.74372 C 168.00188,348.11592 170.6954,349.23862 171.7672,349.23862 C 174.76208,349.23862 184.37928,359.54062 185.19586,363.62342 L 185.92209,367.25452 L 198.6543,367.25452 L 211.38648,367.25452 L 210.53332,363.71572 C 207.68216,351.88942 194.82597,334.86172 187.34019,332.99712 C 185.32164,332.49432 179.73189,330.46232 174.91854,328.48172 C 170.10519,326.50102 164.16959,324.50582 161.72828,324.04782 C 150.63672,320.35022 131.15045,316.35132 127.5903,314.34452 C 116.2914,312.62102 90.474989,286.82622 90.474989,286.82622 C 80.710128,275.01012 69.904279,264.13902 59.664423,252.75182 C 59.664423,252.75182 244.7078,53.599224 244.7078,53.599224 C 244.7078,53.599224 538.66747,323.59472 538.66747,323.59472 L 516.62447,351.60702 L 536.33338,367.27082 L 572.49138,321.42812 L 251.3178,24.444524 L 235.69322,24.483724 L 228.06656,725.55562 M 252.69253,725.27622 L 251.3178,24.444524 M 228.06656,725.55562 L 227.97262,720.81772 C 227.92093,718.51752 227.39601,713.74002 226.80608,710.20112 C 226.21615,706.66232 224.73731,697.39692 223.51979,689.61152 C 222.53017,682.05222 222.29737,678.49942 220.6443,671.11162 C 219.74997,667.51662 216.48486,657.71732 214.74507,653.96592 C 205.36619,633.74302 204.90319,632.33342 204.90319,624.00432 C 204.90319,619.45812 205.4082,614.40832 206.02546,612.78252 C 206.64273,611.15672 207.88249,607.51022 208.78053,604.67912 C 209.64157,601.63622 212.22678,598.95342 213.9373,595.18902 C 215.64782,591.42462 216.48365,586.57842 216.48486,586.56972 C 216.49354,586.57932 219.27488,586.57532 230.64026,586.57532 C 244.78053,586.57532 244.79675,586.57552 244.79566,586.57632 C 244.79268,586.58162 242.89454,597.96742 236.57218,606.55572 C 229.58432,616.04802 228.16698,622.59252 231.2625,631.07302 C 232.42235,634.25062 233.97688,638.87722 234.71701,641.35442 C 235.45713,643.83162 237.65199,649.07412 239.5945,653.00442 C 241.84456,657.55712 243.4469,663.39482 244.00967,669.09012 C 244.4955,674.00692 245.62084,680.87842 246.51045,684.36002 L 248.37339,691.80122 C 248.37339,691.80122 331.43411,586.61352 331.43411,586.61352 L 350.62072,601.82442 C 350.62072,601.82442 252.69253,725.27622 252.69253,725.27622"
       style="fill:black"
       id="path2026" />
    <path
       d="M 249.31209,234.85202 C 249.31201,244.90292 247.79451,253.73382 244.7596,261.34482 C 241.72453,268.95582 237.37093,274.95072 231.69879,279.32932 C 229.80698,281.12092 227.59261,282.46382 225.05566,283.35802 C 222.5186,284.25232 219.95654,284.79962 217.36948,285.00002 L 211.69879,285.00002 L 181.25015,285.00002 L 181.25015,185.00002 L 213.48882,185.00002 C 215.97871,185.00012 218.14374,185.07532 219.98392,185.22552 C 221.824,185.37592 223.49028,185.64992 224.98278,186.04762 C 226.47517,186.44552 227.81807,186.99282 229.01148,187.68962 C 230.20476,188.38662 231.49832,189.23152 232.89214,190.22432 C 238.1665,194.80352 242.22176,200.89852 245.05793,208.50952 C 247.89396,216.12062 249.31201,224.90142 249.31209,234.85202 L 249.31209,234.85202 z M 233.19276,234.85202 C 233.19269,228.08672 232.47076,222.06682 231.02696,216.79232 C 229.58304,211.51802 227.61766,207.58722 225.13081,205.00002 C 223.8372,203.80672 222.34476,202.81232 220.65347,202.01662 C 218.96208,201.22122 217.07185,200.82342 214.98278,200.82332 L 197.07342,200.82332 L 197.07342,268.88072 L 212.89214,268.88072 C 215.4792,268.88072 217.64348,268.58242 219.38497,267.98572 C 221.12636,267.38902 222.69395,266.39382 224.08777,265.00002 C 227.0726,262.01512 229.33632,257.91052 230.87893,252.68622 C 232.42142,247.46192 233.19269,241.51722 233.19276,234.85202 L 233.19276,234.85202 z "
       style="font-size:537.30267334px;font-style:normal;font-variant:normal;font-weight:bold;font-stretch:normal;text-align:start;line-height:125%;writing-mode:lr-tb;text-anchor:start;fill:black;fill-opacity:1;stroke:none;stroke-width:1px;stroke-linecap:butt;stroke-linejoin:miter;stroke-opacity:1;font-family:USHighwaysOldStyleBCBA"
       id="text1874" />
    <path
       d="M 50.178798,578.82764 C 50.583699,566.78589 52.113057,555.76268 54.766876,545.75796 C 57.420645,535.75332 61.606912,525.85454 67.325689,516.0616 C 71.611592,508.29963 76.917623,501.10137 83.243799,494.4668 C 89.569867,487.8324 96.305583,481.86136 103.45097,476.55367 C 105.28861,475.53835 106.92232,474.46842 108.35208,473.34388 C 109.78169,472.21955 111.20982,471.14651 112.63647,470.12475 L 123.66281,464.31256 L 133.76405,458.49103 L 143.56628,452.97786 C 147.64653,450.32419 150.96222,447.00695 153.51335,443.02612 C 156.06423,439.04557 157.33974,434.91225 157.33986,430.62616 C 157.33974,426.75152 156.31964,423.12903 154.27959,419.75868 C 152.23928,416.38864 149.53565,413.47944 146.16869,411.03105 C 142.80149,408.583 138.87219,406.64405 134.38078,405.21419 C 129.88916,403.78468 125.0924,403.06984 119.99048,403.06966 C 109.58078,403.06984 101.15997,405.51961 94.728011,410.419 C 88.295922,415.31872 84.263836,422.46247 82.631743,431.85027 L 50.178798,424.81397 C 53.648645,407.66414 61.60847,394.24099 74.058297,384.54448 C 86.508037,374.84835 101.81875,370.0002 119.99048,369.99999 C 129.78949,370.0002 138.92359,371.6339 147.3928,374.9011 C 155.86177,378.16871 163.20954,382.55744 169.43613,388.0673 C 175.66244,393.57754 180.61339,400.05784 184.28898,407.50823 C 187.96427,414.95896 189.80199,422.8705 189.80215,431.24289 C 189.80199,439.20442 188.01567,447.01162 184.44317,454.66452 C 180.87036,462.31766 175.71695,469.10633 168.98293,475.03054 C 167.35064,476.25164 165.87112,477.37296 164.54436,478.39451 C 163.21733,479.41626 161.83748,480.23233 160.40481,480.84273 L 150.30356,487.27164 L 139.27722,493.09318 L 129.17598,498.91471 C 124.27321,501.76793 119.93432,504.77681 116.15929,507.94136 C 112.38409,511.10605 108.91422,514.52608 105.74968,518.20146 C 102.58498,521.87696 99.624384,525.96044 96.867868,530.45191 C 94.11122,534.94347 91.508819,540.04549 89.06066,545.75796 L 189.80215,545.75796 L 189.80215,578.82764 L 50.178798,578.82764 z M 369.81181,435.53195 C 369.81165,449.61714 367.92254,463.65079 364.14446,477.63294 C 360.36608,491.6153 355.00709,505.03689 348.0675,517.89777 C 341.12763,530.75876 332.75976,542.69928 322.96389,553.71935 C 313.16778,564.73948 302.34859,574.33301 290.50627,582.49997 L 274.89185,554.94346 C 281.01545,550.04705 286.47566,545.30168 291.27251,540.70734 C 296.06919,536.11307 300.40652,531.36615 304.28452,526.46654 C 308.16233,521.56704 311.73499,516.36224 315.0025,510.85212 C 318.2698,505.34214 321.43286,499.21692 324.49169,492.47645 C 318.57349,493.49819 314.03214,494.21303 310.86762,494.62098 C 307.7029,495.0291 304.08041,495.23312 300.00013,495.23304 C 290.40652,495.23312 281.37365,493.60097 272.9015,490.33659 C 264.42923,487.07239 257.02851,482.63383 250.69932,477.02089 C 244.37004,471.40815 239.36926,464.77367 235.69695,457.11741 C 232.0246,449.4614 230.18844,441.34739 230.18846,432.77536 C 230.18844,423.99806 232.0246,415.78126 235.69695,408.12496 C 239.36926,400.46899 244.31864,393.83451 250.54513,388.22148 C 256.77154,382.60883 264.12087,378.16871 272.59314,374.9011 C 281.06528,371.6339 290.20094,370.0002 300.00013,369.99999 C 309.79915,370.0002 318.98464,371.68529 327.55664,375.05528 C 336.1284,378.42568 343.52756,383.01843 349.75415,388.83353 C 355.98046,394.64902 360.88001,401.53736 364.45282,409.49858 C 368.02532,417.46013 369.81165,426.13791 369.81181,435.53195 L 369.81181,435.53195 z M 337.34952,432.77536 C 337.34939,428.89449 336.3293,425.11626 334.28925,421.44066 C 332.24894,417.76538 329.54531,414.60076 326.17835,411.9468 C 322.81115,409.29317 318.88185,407.1502 314.39044,405.51788 C 309.89882,403.88591 305.10206,403.06984 300.00013,403.06966 C 294.89803,403.06984 290.15266,403.83607 285.76401,405.36837 C 281.37521,406.90102 277.49574,408.99415 274.12561,411.64778 C 270.75536,414.30174 268.10156,417.4648 266.16422,421.13697 C 264.22677,424.80946 263.25808,428.68892 263.25813,432.77536 C 263.25808,436.85588 264.22677,440.68238 266.16422,444.25491 C 268.10156,447.82769 270.75536,450.94092 274.12561,453.59459 C 277.49574,456.24851 281.37521,458.34008 285.76401,459.86932 C 290.15266,461.3988 294.89803,462.16348 300.00013,462.16336 C 305.10206,462.16348 309.95022,461.3988 314.54462,459.86932 C 319.13882,458.34008 323.11951,456.24851 326.48671,453.59459 C 329.85367,450.94092 332.50591,447.82769 334.44343,444.25491 C 336.3807,440.68238 337.34939,436.85588 337.34952,432.77536 L 337.34952,432.77536 z M 549.82147,503.19443 C 549.82131,514.62575 547.62695,525.1397 543.23837,534.7363 C 538.84949,544.33298 532.67444,552.7024 524.71319,559.84458 C 516.75167,566.98679 507.31077,572.54824 496.39045,576.52893 C 485.46992,580.50962 473.47801,582.49996 460.41468,582.49997 C 451.43158,582.49996 442.60273,581.47987 433.92811,579.43969 C 425.25339,577.39951 417.3434,574.5417 410.19812,570.86625 L 426.1209,542.08563 C 430.4068,544.32831 436.01964,546.11308 442.95942,547.43995 C 449.89911,548.76688 457.14409,549.43032 464.69439,549.4303 C 472.04521,549.43032 478.9351,548.25761 485.36411,545.91215 C 491.79292,543.56675 497.40732,540.35229 502.20731,536.26877 C 507.00708,532.18533 510.73235,527.33718 513.38316,521.72428 C 516.03371,516.1115 517.35905,509.93489 517.35918,503.19443 C 517.35905,498.09249 516.39036,493.39851 514.45309,489.11248 C 512.51557,484.82663 509.86333,481.04996 506.49637,477.78245 C 503.12917,474.51515 499.25127,471.96258 494.86265,470.12475 C 490.47381,468.28714 485.72533,467.36828 480.61718,467.36817 C 476.94787,467.36828 473.73497,467.67509 470.97847,468.28859 C 468.22181,468.90231 465.61785,470.02519 463.16659,471.65723 C 460.71519,473.28948 458.26541,475.48384 455.81726,478.24033 C 453.36897,480.99701 450.61239,484.51827 447.5475,488.80412 L 415.09456,479.61862 L 420.29936,373.67232 L 538.18775,373.67232 L 538.18775,406.13461 L 451.83656,406.13461 L 449.6967,439.81166 C 457.24688,437.56916 463.16496,436.0398 467.45098,435.22359 C 471.73684,434.40766 476.43393,433.99962 481.54227,433.99948 C 490.93013,433.99962 499.75742,435.83578 508.02417,439.50797 C 516.29068,443.18044 523.53722,448.18122 529.76381,454.51034 C 535.99012,460.8397 540.88967,468.18902 544.46248,476.55834 C 548.03498,484.92786 549.82131,493.80655 549.82147,503.19443 L 549.82147,503.19443 z "
       style="font-size:306.1958313px;font-style:normal;font-variant:normal;font-weight:bold;font-stretch:normal;text-align:center;line-height:125%;writing-mode:lr-tb;text-anchor:middle;fill:black;fill-opacity:1;stroke:none;stroke-width:1px;stroke-linecap:butt;stroke-linejoin:miter;stroke-opacity:1;font-family:USHighwaysOldStyleBCBA"
       id="text1878" />
    <path
       d="M 346.95525,263.67732 C 341.19175,277.89242 331.48975,285.00002 317.84925,285.00002 C 310.64342,285.00002 304.68722,283.60752 299.98064,280.82252 C 295.274,278.03752 291.38309,273.66662 288.30789,267.70972 C 286.10039,263.38562 284.37225,258.34192 283.12342,252.57842 C 281.87456,246.81502 281.25014,240.90792 281.25014,234.85712 C 281.25014,227.17352 282.21022,219.82482 284.13042,212.81102 C 286.05056,205.79732 288.69189,200.12992 292.05442,195.80872 C 294.93611,192.25282 298.41881,189.56242 302.5025,187.73742 C 306.58614,185.91262 311.36458,185.00012 316.83786,185.00002 C 324.14033,185.00012 330.16908,186.58542 334.92414,189.75572 C 339.67906,192.92632 343.68942,197.92102 346.95525,204.73972 L 332.69028,210.79482 C 331.34464,208.77802 330.11925,207.09672 329.01411,205.75112 C 327.90883,204.40562 326.756,203.34872 325.55558,202.58062 C 324.35506,201.81262 323.05858,201.28422 321.66614,200.99542 C 320.27358,200.70672 318.66417,200.56232 316.83786,200.56222 C 312.90072,200.56232 309.6115,201.47472 306.97022,203.29962 C 304.32883,205.12452 302.19172,208.19902 300.55889,212.52302 C 299.31,215.40482 298.37339,218.81492 297.74897,222.75342 C 297.12453,226.69202 296.81233,230.72662 296.81233,234.85712 C 296.81233,240.13982 297.34072,245.20702 298.39758,250.05872 C 299.45439,254.91052 300.94289,258.87252 302.86308,261.94472 C 304.5927,264.44242 306.61033,266.31572 308.91603,267.56452 C 311.22167,268.81342 314.05428,269.43782 317.41392,269.43782 C 320.68256,269.43782 323.51736,268.54962 325.91836,266.77302 C 328.31925,264.99652 330.47983,262.13822 332.40006,258.19822 L 346.95525,263.67732 L 346.95525,263.67732 z "
       style="font-size:518.73181152px;font-style:normal;font-variant:normal;font-weight:bold;font-stretch:normal;text-align:start;line-height:125%;writing-mode:lr-tb;text-anchor:start;fill:black;fill-opacity:1;stroke:none;stroke-width:1px;stroke-linecap:butt;stroke-linejoin:miter;stroke-opacity:1;font-family:USHighwaysOldStyleBCBA"
       id="text1882" />
  </g>
</svg>

<?xml version="1.0" encoding="UTF-8" standalone="no"?>
<!-- Created with Inkscape (http://www.inkscape.org/) -->
<svg id="svg2" xmlns:rdf="http://www.w3.org/1999/02/22-rdf-syntax-ns#" xmlns="http://www.w3.org/2000/svg" height="750" width="600" version="1.0" xmlns:cc="http://creativecommons.org/ns#" xmlns:dc="http://purl.org/dc/elements/1.1/">
 <metadata id="metadata14">
  <rdf:RDF>
   <cc:Work rdf:about="">
    <dc:format>image/svg+xml</dc:format>
    <dc:type rdf:resource="http://purl.org/dc/dcmitype/StillImage"/>
    <dc:title/>
   </cc:Work>
  </rdf:RDF>
 </metadata>
 <g id="layer1">
  <g>
   <rect id="rect2029" rx="37.5" ry="37.5" height="749.72" width="599.72" stroke="#000" y=".13882" x=".13904" stroke-width=".27766" fill="#fff"/>
   <rect id="rect4704" rx="28.125" ry="25.137" height="731.25" width="581.25" y="9.375" x="9.3751"/>
   <rect id="rect5591" rx="12.5" ry="12.5" height="700" width="550" y="25" x="25" fill="#fff"/>
  </g>
  <g>
   <path id="path2026" d="m235.69 24.484l-208.18 223.92 33.559 37.14c8.308 10.46 33.967 36.67 35.894 36.67 0.721 0 3.727 1.67 6.687 3.7 6.53 4.48 16.03 8.4 24.69 10.17 15.59 3.2 33.73 8.37 37.44 10.66 2.22 1.38 4.92 2.5 5.99 2.5 2.99 0 12.61 10.3 13.43 14.38l0.72 3.63h12.73 12.74l-0.86-3.53c-2.85-11.83-15.7-28.86-23.19-30.72-2.02-0.51-7.61-2.54-12.42-4.52s-10.75-3.97-13.19-4.43c-11.09-3.7-30.58-7.7-34.14-9.71-11.3-1.72-37.115-27.51-37.115-27.51-9.765-11.82-20.571-22.69-30.811-34.08l185.05-199.15c0-0.001 293.96 269.99 293.96 269.99l-22.05 28.02 19.71 15.66 36.16-45.84-321.17-296.98-15.63 0.034-7.62 701.08m24.62-0.28l-1.37-700.84m-23.25 701.12l-0.1-4.74c-0.05-2.3-0.57-7.08-1.16-10.62s-2.07-12.8-3.29-20.59c-0.99-7.56-1.22-11.11-2.88-18.5-0.89-3.59-4.16-13.39-5.89-17.14-9.38-20.23-9.85-21.64-9.85-29.97 0-4.54 0.51-9.59 1.13-11.22 0.61-1.62 1.85-5.27 2.75-8.1 0.86-3.04 3.45-5.73 5.16-9.49 1.71-3.77 2.54-8.61 2.54-8.62 0.01 0.01 2.79 0.01 14.16 0.01h14.16c-0.01 0-1.91 11.39-8.23 19.98-6.99 9.49-8.4 16.03-5.31 24.51 1.16 3.18 2.72 7.81 3.46 10.28 0.74 2.48 2.93 7.72 4.87 11.65 2.25 4.56 3.86 10.39 4.42 16.09 0.49 4.92 1.61 11.79 2.5 15.27l1.86 7.44 83.06-105.19 19.19 15.21-97.93 123.46"/>
   <g>
    <path id="text1874" d="m249.31 234.85c0 10.05-1.52 18.88-4.55 26.49-3.04 7.62-7.39 13.61-13.06 17.99-1.89 1.79-4.11 3.13-6.64 4.03-2.54 0.89-5.1 1.44-7.69 1.64h-5.67-30.45v-100h32.24c2.49 0 4.65 0.08 6.49 0.23s3.51 0.42 5 0.82c1.5 0.4 2.84 0.94 4.03 1.64s2.49 1.54 3.88 2.53c5.28 4.58 9.33 10.68 12.17 18.29 2.83 7.61 4.25 16.39 4.25 26.34zm-16.12 0c0-6.76-0.72-12.78-2.16-18.06-1.45-5.27-3.41-9.2-5.9-11.79-1.29-1.19-2.79-2.19-4.48-2.98-1.69-0.8-3.58-1.2-5.67-1.2h-17.91v68.06h15.82c2.59 0 4.75-0.3 6.49-0.89 1.75-0.6 3.31-1.6 4.71-2.99 2.98-2.98 5.25-7.09 6.79-12.31 1.54-5.23 2.31-11.17 2.31-17.84z"/>
    <path id="text1878" d="m50.179 578.83c0.405-12.04 1.934-23.07 4.588-33.07 2.654-10.01 6.84-19.91 12.559-29.7 4.286-7.76 9.592-14.96 15.918-21.59 6.326-6.64 13.062-12.61 20.206-17.92 1.84-1.01 3.47-2.08 4.9-3.21 1.43-1.12 2.86-2.19 4.29-3.22l11.02-5.81 10.1-5.82 9.81-5.51c4.08-2.66 7.39-5.97 9.94-9.95s3.83-8.12 3.83-12.4c0-3.88-1.02-7.5-3.06-10.87s-4.74-6.28-8.11-8.73-7.3-4.39-11.79-5.82-9.29-2.14-14.39-2.14c-10.41 0-18.83 2.45-25.262 7.35s-10.464 12.04-12.096 21.43l-32.453-7.04c3.47-17.15 11.429-30.57 23.879-40.27 12.45-9.69 27.762-14.54 45.932-14.54 9.8 0 18.93 1.63 27.4 4.9s15.82 7.66 22.05 13.17c6.22 5.51 11.17 11.99 14.85 19.44 3.67 7.45 5.51 15.36 5.51 23.73 0 7.96-1.78 15.77-5.36 23.42-3.57 7.66-8.72 14.45-15.46 20.37-1.63 1.22-3.11 2.34-4.44 3.36-1.32 1.03-2.7 1.84-4.14 2.45l-10.1 6.43-11.02 5.82-10.1 5.82c-4.91 2.86-9.25 5.87-13.02 9.03-3.78 3.17-7.25 6.59-10.41 10.26-3.17 3.68-6.126 7.76-8.882 12.25-2.757 4.49-5.359 9.6-7.807 15.31h100.74v33.07h-139.62zm319.63-143.3c0 14.09-1.89 28.12-5.67 42.1-3.77 13.99-9.13 27.41-16.07 40.27s-15.31 24.8-25.11 35.82c-9.79 11.02-20.61 20.61-32.45 28.78l-15.62-27.56c6.13-4.89 11.59-9.64 16.38-14.23 4.8-4.6 9.14-9.34 13.01-14.24 3.88-4.9 7.45-10.11 10.72-15.62s6.43-11.63 9.49-18.37c-5.92 1.02-10.46 1.73-13.62 2.14-3.17 0.41-6.79 0.61-10.87 0.61-9.59 0-18.63-1.63-27.1-4.89-8.47-3.27-15.87-7.71-22.2-13.32s-11.33-12.25-15-19.9c-3.68-7.66-5.51-15.77-5.51-24.34 0-8.78 1.83-17 5.51-24.66 3.67-7.65 8.62-14.29 14.85-19.9 6.22-5.61 13.57-10.05 22.04-13.32 8.48-3.27 17.61-4.9 27.41-4.9s18.98 1.69 27.56 5.06c8.57 3.37 15.97 7.96 22.19 13.77 6.23 5.82 11.13 12.71 14.7 20.67 3.58 7.96 5.36 16.64 5.36 26.03zm-32.46-2.75c0-3.89-1.02-7.66-3.06-11.34-2.04-3.67-4.74-6.84-8.11-9.49-3.37-2.66-7.3-4.8-11.79-6.43s-9.29-2.45-14.39-2.45-9.85 0.77-14.24 2.3c-4.38 1.53-8.26 3.62-11.63 6.28-3.37 2.65-6.03 5.81-7.97 9.49-1.93 3.67-2.9 7.55-2.9 11.64 0 4.08 0.97 7.9 2.9 11.47 1.94 3.58 4.6 6.69 7.97 9.34 3.37 2.66 7.25 4.75 11.63 6.28 4.39 1.53 9.14 2.29 14.24 2.29s9.95-0.76 14.54-2.29c4.6-1.53 8.58-3.62 11.95-6.28 3.36-2.65 6.02-5.76 7.95-9.34 1.94-3.57 2.91-7.39 2.91-11.47zm212.47 70.41c0 11.44-2.19 21.95-6.58 31.55-4.39 9.59-10.57 17.96-18.53 25.1-7.96 7.15-17.4 12.71-28.32 16.69s-22.91 5.97-35.98 5.97c-8.98 0-17.81-1.02-26.48-3.06-8.68-2.04-16.59-4.9-23.73-8.57l15.92-28.78c4.29 2.24 9.9 4.02 16.84 5.35s14.18 1.99 21.73 1.99c7.36 0 14.25-1.17 20.67-3.52 6.43-2.34 12.05-5.56 16.85-9.64s8.52-8.93 11.17-14.55c2.65-5.61 3.98-11.79 3.98-18.53 0-5.1-0.97-9.79-2.91-14.08-1.93-4.28-4.59-8.06-7.95-11.33-3.37-3.26-7.25-5.82-11.64-7.66-4.39-1.83-9.13-2.75-14.24-2.75-3.67 0-6.89 0.31-9.64 0.92-2.76 0.61-5.36 1.74-7.81 3.37s-4.9 3.82-7.35 6.58-5.21 6.28-8.27 10.56l-32.46-9.18 5.21-105.95h117.89v32.46h-86.35l-2.14 33.68c7.55-2.24 13.46-3.77 17.75-4.59 4.29-0.81 8.98-1.22 14.09-1.22 9.39 0 18.22 1.84 26.48 5.51 8.27 3.67 15.52 8.67 21.74 15 6.23 6.33 11.13 13.68 14.7 22.05s5.36 17.25 5.36 26.63z"/>
    <path id="text1882" d="m346.96 263.68c-5.77 14.21-15.47 21.32-29.11 21.32-7.21 0-13.16-1.39-17.87-4.18-4.71-2.78-8.6-7.15-11.67-13.11-2.21-4.32-3.94-9.37-5.19-15.13s-1.87-11.67-1.87-17.72c0-7.69 0.96-15.04 2.88-22.05s4.56-12.68 7.92-17c2.89-3.56 6.37-6.25 10.45-8.07 4.09-1.83 8.86-2.74 14.34-2.74 7.3 0 13.33 1.59 18.08 4.76 4.76 3.17 8.77 8.16 12.04 14.98l-14.27 6.05c-1.35-2.01-2.57-3.69-3.68-5.04-1.1-1.34-2.25-2.4-3.45-3.17s-2.5-1.3-3.89-1.58c-1.4-0.29-3.01-0.44-4.83-0.44-3.94 0-7.23 0.91-9.87 2.74-2.64 1.82-4.78 4.9-6.41 9.22-1.25 2.88-2.19 6.29-2.81 10.23-0.63 3.94-0.94 7.98-0.94 12.11 0 5.28 0.53 10.35 1.59 15.2 1.05 4.85 2.54 8.81 4.46 11.88 1.73 2.5 3.75 4.38 6.06 5.62 2.3 1.25 5.13 1.88 8.49 1.88 3.27 0 6.11-0.89 8.51-2.67 2.4-1.77 4.56-4.63 6.48-8.57l14.56 5.48z"/>
   </g>
  </g>
 </g>
</svg>
